X:1
T:Ave Maris Stella
T:Attr. to Josquin Desprez (c. 1450 - 1521)
T:Ave Maris Stella
T:SECUNDA PARS
T:Edición Byrt Janssen (Granada, junio 2009)
T:Edición Byrt Janssen (Granada, junio 2009)
T:Edición Byrt Janssen (Granada, junio 2009)
T:Edición Byrt Janssen (Granada, junio 2009)
T:Edición Byrt Janssen (Granada, junio 2009)
T:Edición Byrt Janssen (Granada, junio 2009)
T:Edición Byrt Janssen (Granada, junio 2009)
T:Edición Byrt Janssen (Granada, junio 2009)
T:Edición Byrt Janssen (Granada, junio 2009)
T:Edición Byrt Janssen (Granada, junio 2009)
T:Edición Byrt Janssen (Granada, junio 2009)
T:Edición Byrt Janssen (Granada, junio 2009)
C:Attr. to Josquin Desprez
C:(c. 1450 - 1521)
Z:Edición Byrt Janssen (Granada, junio 2009)
%%score [ 1 2 3 4 ]
L:1/8
Q:1/2=60
M:2/2
K:F
V:1 treble nm="SOPRANO" snm="S."
V:2 treble nm="ALTO" snm="A."
V:3 treble-8 transpose=-12 nm="TENOR" snm="T."
V:4 bass nm="BAJO" snm="B."
V:1
 G4 d4 | z4 G4 | d4 z4 | G4 d4 | d2 d2 c4 | d8- | d8 | z8 | z8 | z8 | z8 | z4 d4 | d4 G3 A | %13
w: A- ve,|A-|ve,|a- ve|ma- ris stel-|la,|_|||||De-|i Ma- *|
 B2 c4 B2 | A4 G4 | z8 | z8 | z4 d4 | d2 d3 c B2- | BA F2 G4 | F4 f4 | d2 f3 e d2- | dc A2 B4 | %23
w: * * ter|al- ma,|||at-|que sem- * *||per Vir-|||
 A8 | z8 | z8 | z8 | z8 | A4 c4 | z4 A4 | B3 G A4 | G4 E4 | G4 E4 | FGAB cd e2- | ed d4 ^c2 | d8 | %36
w: go,|||||fe- lix,|cae-|li _ por-|ta, fe-|lix cae-|* * * * li _ por-||ta.|
 z8 | z8 | z4 G4 | d4 z4 | G4 d4 | e4 c4 | d3 e f2 e2- | ed d4 ^c2 | d8 | z8 | z8 | z4 d4 | %48
w: ||Su-|mens,|su- mens|_ il-|lud _ _ a-||ve|||Ga-|
 d4 G3 A | B2 c2 A4 | G4 z4 | B4 B4 | c2 A2 G4 | F4 z4 | B8 | A4 c4 | d4 d4 | G8 | z8 | z8 | z8 | %61
w: bri- e- *|* lis o|re,|fun- da|nos in pa-|ce|fun-|da nos|in pa-|ce,||||
 z8 | A4 c3 B | A2 G2 F2 E2- | ED G4 ^F2 | G4 D4 | F4 z4 | z8 | z8 | z8 | z8 | z8 | z8 | G4 d4 | %74
w: |mu- tans _|no- * * men|_ _ He- *||vae.|||||||Sol- ve|
 z2 d2 d2 d2- | d2 cB c4 | d4 z4 | d4 d4 | G4 c3 B | AG G4 ^F2 | G8 | z8 | z8 | d4 f4 | e4 c2 d2- | %85
w: vin- cla re-||is,|pro- fer|lu- men _|_ _ cae- *|cis:|||ma- la|no- stra pel-|
 dc A2 B4 | A8 | z4 A4 | c6 BA | G2 G2 B4- | B2 AG F2 A2- | AG G4 ^F2 | G8 | z8 | z8 | G4 G4 | %96
w: |le,|bo-|na _ _|_ cun- cta|_ _ _ _ _|* * pos- *|ce.|||Mon- stra|
 d6 cd | e4 c4 | d3 e f2 g2- | gfed e4 | d4 G4 | FGAB cd e2- | ed d4 ^c2 | d4 z4 | z8 | d4 d4 | %106
w: te _ _|_ _|es- * se ma-||trem, es-|se _ _ _ _ _ ma-||trem:||su- mat|
 B2 c2 A4 | G2 d2 d2 d2 | f8 | z8 | z2 f2 f2 f2 | d2 f3 e d2- | dcBA B4 | A4 A4 | c6 BA | %115
w: per te pre-|ces, qui pro no-|bis,||qui pro no-|bis na- * *||tus, tu-||
 G2 G2 B3 c | A4 G3 F | GA B4 AG | F4 z4 | G3 A Bc B2- | B2 AG A4 | G2 G3 A B2- | B2 AG F4 | %123
w: * lit, es- se|tu- * *||us,|tu- * lit _ es-||se tu- * *|* * * us,|
 z4 G3 A | Bc B4 AG | d8- | d8 || z4 G4 | d4 z2 d2 | d2 d4 cB | c4 d4- | d4 z2 B2 | B2 B4 AG | %133
w: tu- *||us.|_|Vir-|go sin-|gu- la- * *|* ris,|_ sin-|gu- la- * *|
 A2 B2 G4 | F4 B4 | B4 G3 A | B4 z2 B2- | BAGF G2 A2- | AG G4 ^F2 | G4 B4 | A4 c4 | d3 c de f2- | %142
w: |ris, in-|ter om- *|nes mi-|||tis, nos|cul- pis|so- * * * lu-|
 fecd efge | f3 e d4 | z8 | z8 | A4 c4 | BA G2 A3 G | G4 F4 | G2 DE FGAF | G4 z4 | G4 d4 | %152
w: |* * tos,|||mi- tes|_ _ _ fac _|et _|cas- * * * * * *|tos.|Vi- tam|
 d2 d2 c4 | d4 z4 | z8 | f4 f2 f2- | fe d4 cB | A2 B2 G4 | F8 | z8 | z4 D4 | D4 A4- | A4 F4 | B8 | %164
w: prae- sta pu-|ram,||i- ter pa-||* ra tu-|tum:||ut|vi- den-|* tes|Je-|
 A8 | d3 c BA G2- | GF F4 E2 | F8 | z8 | z8 | z8 | A4 c4 | B2 G2 A4 | G4 z4 | z8 | z8 | z4 G4 | %177
w: |||sum,||||sem- per|col- lae- te-|mur.|||Sit|
 d2 G2 d2 GA | Bc d4 ^c2 | d4 z4 | d4 d4 | G4 c3 B | AG G4 ^F2 | G4 B4 | A4 c4 | d2 D2 D2 D2 | %186
w: laus De- * * *|o _ Pa- *|tri,|sum- mo|Chri- * *|sto _ de- *|cus, Spi-|ri tu|i, Spri- ri- tu-|
 A4 A4 | F8 | z8 | z8 | z2 A4 c2- | cB G2 B3 A | FGAB c2 CD | EF G4 ^F2 | G2 d3 c B2- | BAGF G4 | %196
w: i Sanc-|to,|||tri- bus|_ _ _ ho- *||nor _ u- *|nus, ho- nor u-||
 F8- | F8- | F8 | G8- | G8 |] %201
w: |||nus.|_|
V:2
 z4 G4 | d4 z4 | G4 d4- | d2 c2 B2 A2 | G2 F2 E4 | D4 z4 | z8 | z8 | z8 | z8 | z8 | z8 | G4 G2 C2 | %13
w: A-|ve,|a- ve|_ _ _ _|ma- ris stel-|la,|||||||De- i Ma-|
 G2 CD EF G2- | G2 ^F2 G4- | G8- | G4 z4 | z8 | z8 | z8 | z2 F4 D2 | F3 G A2 B2- | BA A2 G4 | %23
w: ter al- * * * *|* * ma,|_|||||at- que|sem- * per Vir-||
 F4 z4 | z8 | z8 | z8 | D4 F4 | z8 | z4 F2 F2 | G4 D4 | z8 | E4 G4 | z4 E4 | F2 D2 E4 | D8 | z8 | %37
w: go,||||fe- lix,||fe- lix|cae- li,||fe- lix|cae-|li _ por-|ta.||
 z8 | z8 | D4 A4 | B2 B2 B4 | A8 | z2 B4 G2 | A2 F2 E4 | D4 z4 | z8 | z4 d4 | d4 G4 | d3 c BA G2- | %49
w: ||Su- mens|il- lud a-|ve,|su- mens|il- lud a-|ve||Ga-|bri- e-||
 G2 FE F4 | G8- | G8 | z8 | z8 | G4 G4 | A2 F2 E4 | D4 z4 | B4 B4 | c2 A2 G4 | F3 G A2 B2- | %60
w: * lis _ o-|re,|_|||fun- da|nos in pa-|ce,|mu- tans|no- men He-||
 BAGF G2 A2- | AG F4 E2 | F4 z4 | z8 | z8 | z8 | A4 c3 B | A2 G2 F2 E2- | ED G4 ^F2 | G8 | z8 | %71
w: ||vae,||||mu- tans _|no- * * men|_ _ He- *|vae.||
 z8 | z4 D4 | d4 z2 d2- | dc B3 A G2- | GFED E4 | D4 d4 | D2 d3 d B2- | BAGF E2 F2- | FE C2 D4 | %80
w: |Sol-|ve vin-||* * cla _ re-|is, pro-|fer lu- * *|* * * * men cae-|* * * cis:|
 d4 d2 d2- | dc B4 AG | F2 A4 G2 | B3 A FGAF | G2 E2 F3 D | G2 F4 E2 | F4 D4 | F6 ED | C2 C2 E4 | %89
w: ma- la no-|* * stra _ _|pel- * *|le, _ ma- * * *|* la no- stra|pel- * *|le, bo-|na _ _|_ cun- cta|
 E8 | D4 z4 | z8 | G4 G4 | d6 cB | A2 B2 A2 B2- | BA G4 FE | F2 B2 A2 B2- | BAGF G3 A | %98
w: pos-|ce.||Mon- stra|te _ _|_ es- se ma-||trem, es- * *||
 BABc d2 e2- | ed d4 ^c2 | d4 z4 | A4 A4 | F2 G2 E4 | DEFG A2 B2- | BA G4 F2 | G2 B3 A G2- | %106
w: * * * * se ma-||trem:|su- mat|per te pre-|||ces, per _ te|
 G2 FE F4 | G8 | z2 D2 D2 D2 | F4 E4 | DEFG A2 B2- | B2 AG F2 G2 | D4 D4 | F6 ED | C4 z4 | E4 G4 | %116
w: _ _ _ pre-|ces,|qui pro no-|bis na-|||tus, tu-||lit|tu- lit|
 z4 E4 | G6 FE | D2 D2 F3 G | E4 D4- | D4 z4 | E4 G4- | G2 FE D2 D2 | F3 G E4 | D8- | D8- | D8 || %127
w: tu-||* lit, es- se|tu- us|_|tu- *|* * * * lit,|es- se tu-|us.|_||
 G4 d4 | z2 G2 G2 G2- | G2 FE F2 G2 | E4 D4 | z8 | z8 | z8 | z4 G4 | G4 E4 | D2 dc BA G2- | %137
w: Vir- go|sin- gu- la-||* ris,||||in-|ter om-|nes mi- * * * *|
 GF D2 E4 | D8 | z2 D2 D2 D2 | F4 E4 | D2 F2 F2 F2 | A4 G4 | F3 G A2 B2- | BAGF E2 A2- | AG F4 E2 | %146
w: |tis,|nos cul- pis|so- lu-|tos, nos cul- pis|so- lu-||||
 F4 A4 | c4 z4 | z4 A4 | B3 G A4 | G4 G4 | d4 D4 | F3 D E4 | D4 z2 D2 | F3 D E4 | D4 A4 | %156
w: tos, mi-|tes|fac|et _ cas-|tos. Vi-|tam prae-|sta _ pu-|ram, prae-|sta _ pu-|ram, i-|
 D2 F2 D2 F2- | FE D4 C2 | D2 A3 GFE | D2 G4 ^F2 | G4 z4 | G4 F3 D | E4 D4 | G8 | F8 | B8- | B8 | %167
w: ter pa- ra tu-||||tum:|ut vi- *|den- tes|Je-||||
 A8 | z8 | z8 | D4 F4- | F2 ED C3 D | EF G4 ^F2 | G8 | z8 | z8 | G4 d2 G2 | B3 A GF G2- | %178
w: sum,|||sem- per|_ _ _ col- *|lae- * te- *|mur.|||Sit laus De-|* * o _ Pa-|
 GF D2 E4 | D4 z2 D2- | DE FE/F/ G4 | E2 E2 C4- | C4 D4 | z2 D2 D2 D2 | F3 G A4 | D2 F2 F2 F2 | %186
w: |tri, sum-|* * * * * mo|Chri- sto de-|* cus,|sum- mo Chri-|* sto de-|cus, Spi- ri- tu-|
 F4 E4 | D4 z4 | z8 | z4 G4 | A4 A3 G | E2 G3 F D2 | F3 E CDEF | G2 C2 D4- | D8 | z2 B4 AG | %196
w: i Sanc-|to,||tri-|bus ho- *|nor u- * *||* * nus,|_|ho- nor _|
 B2 A3 GFE | D8- | D8 | D8- | D8 |] %201
w: u- * * * *|||nus.|_|
V:3
 z8 | z8 | z8 | z8 | z8 | G4 d4 | z4 G4 | d4 z4 | G4 d4 | d2 d2 c4 | d8- | d8 | z8 | z8 | d4 d4 | %15
w: |||||A- ve,|a-|ve,|a- ve|ma- ris stel-|la,|_|||De- i|
 G3 A B2 c2- | c2 B2 A4 | G2 B4 G2 | B2 G2 B3 c | d4 G4 | z8 | z8 | z8 | z4 A4 | c4 A4 | %25
w: Ma- * * *|* ter al-|ma, at- que|sem- per Vir- *|* go,||||fe-|lix cae-|
 Bcde fg a2- | ag g4 ^f2 | g2 d4 f2- | f2 ed c2 A2 | Bcde fg a2- | a2 g4 ^f2 | g8 | z8 | z8 | z8 | %35
w: * * * * li _ por-||ta, fe- lix|_ _ _ cae- *|* * * * li por- *||ta.||||
 G4 d4 | e4 c4 | d3 e f2 e2- | e2 d4 ^c2 | d4 z4 | z8 | z8 | z8 | z8 | d4 d4 | G3 A B2 c2 | %46
w: Su- mens|_ il-|lud _ _ a-||ve|||||Ga- bri-|e- * * lis|
 A4 G4- | G4 z4 | z8 | z8 | z8 | B8 | A4 c4 | d4 d4 | G8 | z8 | z8 | B8 | A4 c4 | d4 d4 | %60
w: o- re,|_||||fun-|da nos|in pa-|ce,|||mu-|tans no-|men He-|
 G3 A B2 c2 | A2 B2 G4 | F8 | z8 | z8 | z8 | z4 A4 | c4 A4 | B3 G A4 | G4 G4 | d2 d2 d2 d2- | %71
w: ||vae,||||mu-|tans no-|* men He-|vae. Sol-|ve vin- cla- re-|
 d2 cB c4 | d8 | z8 | z8 | z8 | z4 d4 | d4 G3 A | B2 c3 BAG | F2 G2 A4 | G4 z4 | B8 | A4 c4 | %83
w: |is,||||pro-|fer lu- *|men cae- * * *||cis:|ma-|la no-|
 d4 d4 | G4 A2 B2- | BA F2 G4 | F4 z4 | z8 | A4 c4- | c2 BA G2 G2 | B6 AG | F2 G2 A4 | G4 z4 | %93
w: stra pel-|le, _ _|_ _ _ _|||bo- na|_ _ _ _ cun-|cta _ _|_ _ pos-|ce.|
 G4 G4 | d6 cd | e4 c4 | d3 e f2 g2- | gfed e4 | d4 z4 | z8 | z2 d4 c2 | d4 A4 | z8 | d4 d4 | %104
w: Mon- stra|te _ _|_ _|es- * se ma-||trem,||es- se|ma- trem:||su- mat|
 B2 c2 A4 | G3 A B3 c/d/ | (3e4 c4 d4 | G4 z4 | B8 | A4 c4 | d4 d4 | G2 d3 c B2- | BAGF G4 | %113
w: per te pre-|||ces,|qui|pro no-|bis na-|tus, na- * *||
 F4 z4 | A4 c4- | c4 z4 | A4 c4- | c2 BA G2 G2 | B3 c A4 | G8 | z4 A4 | c6 BA | G2 G2 A3 B | %123
w: tus,|tu- lit|_|tu- lit|_ _ _ es- se|tu- * *|us,|tu-|lit _ _|es- se tu- *|
 A4 G4 | G8- | G8- | G8 || z8 | z8 | z8 | z8 | G4 d4 | z2 d2 d2 d2- | d2 cB c4 | d8- | d4 z4 | %136
w: |us.|_||||||Vir- go|sin- gu- la-||ris|_|
 d4 d4 | G4 c4 | B3 G A4 | G8 | z8 | B8 | A4 c4 | d4 d4 | G2 c3 BAG | F2 A2 G4 | F4 z4 | A4 c4 | %148
w: in- ter|om- nes|mi- * *|tis,||nos|cul- pis|so- lu|tos, _ _ _ _|_ _ _||mi- tes|
 B2 G2 A4 | G4 z4 | z8 | z8 | z8 | G4 d4 | d2 d2 c4 | d8 | z4 d4 | d4 G4 | A3 G A2 B2- | B2 AG A4 | %160
w: fac et cas-|tos.||||Vi- tam|prae- sta- pu-|ram,|i-|ter pa-|ra _ _ tu-||
 G4 z4 | B4 A4 | c4 d4 | d8- | d8 | G3 A Bc B2- | BAGF G4 | F4 z4 | A4 c4 | B2 G2 A4 | G4 z4 | z8 | %172
w: tum:|ut vi-|den- tes|Je-||||sum,|sem- per|col- lae- te-|mur.||
 z8 | z4 G4 | d2 G2 B2 GA | Bc d4 ^c2 | d4 z4 | z8 | z8 | z4 d4 | d4 G4 | c3 B AG F2- | F2 G2 A4 | %183
w: |Sit|laus De- * * *|o _ Pa- *|tri,|||sum-|mo Chri-||* sto de-|
 G8 | z8 | B8 | A4 c4 | d4 d4 | G3 A B2 c2- | c2 BA G4 | F4 A4 | c3 B G2 B2- | BAFG AB c2- | %193
w: cus,||Spi-|ri- tu-|i Sanc-|to, _ _ _|_ _ _ _|* tri-|bus _ _ ho-||
 cB G2 A4 | G4 z2 GA | Bc d4 c2 | d2 f3 e d2- | dcBA B4 | A8 | G8- | G8 |] %201
w: * * nor u-|nus, tri- *||bus ho- nor u-|||nus.|_|
V:4
 z8 | z8 | z8 | z8 | z8 | z4 G,4 | D4 z4 | G,4 D4- | D2 C2 B,2 A,2 | G,2 F,2 E,4 | D,8- | D,8 | %12
w: |||||A-|ve,|a- ve|_ _ _ _|ma- ris stel-|la,|_|
 z8 | z8 | z4 G,4 | G,2 C,2 G,2 C,D, | E,F, G,4 ^F,2 | G,4 B,4 | G,2 B,3 A, G,2- | G,F, D,2 E,4 | %20
w: ||De-|i Ma- ter al- *||ma, at-|que sem- * *|* * per Vir-|
 D,4 D4 | D2 D3 C B,2- | B,A, F,2 G,4 | D,4 z4 | A,4 C4 | z4 A,4 | B,3 G, A,4 | G,4 D,4 | %28
w: go, at-|que sem- * *|* * per Vir-|go,|fe- lix|cae-|li _ por-|ta, fe-|
 F,4 F,2 F,2 | G,4 D,4 | z8 | z8 | z8 | z8 | D,4 A,4 | B,2 B,2 B,4 | A,8 | z2 B,4 G,2 | %38
w: lix cae- li|por- ta.|||||Su- mens|il- lud a-|ve,|su- mens|
 A,2 F,2 E,4 | D,8 | z8 | z8 | z8 | A,4 A,4 | D,4 D3 C | B,A, G,4 F,E, | F,4 G,4 | z8 | z8 | z8 | %50
w: il- lud a-|ve||||Ga- bri-|e- * *|* * * lis _|o- re,||||
 z8 | G,4 G,4 | A,2 F,2 E,4 | D,4 z4 | G,4 G,4 | F,2 D,2 A,4 | D,4 z4 | G,4 G,4 | A,2 F,2 E,4 | %59
w: |fun- da|nos in pa-|ce,|fun- da|nos in pa-|ce,|mu- tans|no- men He-|
 D,8 | z8 | z8 | z4 A,4 | C4 A,4 | B,3 G, A,4 | G,8 | z8 | z8 | z4 D,4 | D4 z2 D2- | %70
w: vae,|||mu-|tans no-|men _ He-|vae.|||Sol-|ve vin-|
 DC B,3 A, G,2- | G,F,E,D, E,4 | D,2 DC B,A, G,2- | G,2 F,E, D,4 | z4 G,4 | B,4 A,4 | %76
w: ||cla re- * * * *|* * * is,|pro-|fer lu-|
 D,2 D2 G,2 D2- | DC B,3 A, G,2- | G,F,E,D, C,2 F,2- | F,G, E,2 D,4 | z8 | z4 G,4 | D,2 F,4 C,2 | %83
w: men cae- cis, lu-||* * * * men cae-|* * * cis:||ma-|la no- stra|
 G,3 F,/E,/ D,4 | C,4 z4 | z8 | z8 | D,4 F,4- | F,2 E,D, C,2 D,2 | E,6 D,C, | B,,3 C, D,E, F,2- | %91
w: pel- * * *|le,|||bo- na|_ _ _ _ cun-|cta _ _|pos- * * * *|
 F,D, E,2 D,4 | z4 G,4 | G,4 D4 | D,3 E, F,2 G,2- | G,F,E,D, E,4 | D,4 z4 | z8 | z8 | A,4 A,4 | %100
w: * * * ce.|Mos-|tra te|es- * se ma-||trem:|||su- mat|
 F,2 G,2 E,4 | D,2 D,2 A,4 | B,2 G,2 A,4 | D,3 E, F,2 G,2- | G,2 C,2 D,4 | z8 | z8 | z8 | %108
w: per te pre-|ces, su- *|* * mat|per _ te pre-|* * ces,||||
 B,,4 B,,2 B,,2 | D,4 C,4 | B,,4 z4 | z8 | z8 | D,4 F,4- | F,2 E,D, C,4 | z4 G,4 | D,2 F,2 C,3 D, | %117
w: qui pro no-|bis na-|tus,|||tu- *|* * * lit|tu-|lit es- * *|
 E,F, G,3 A, B,2- | B,2 A,G, F,2 D,2 | E,2 C,2 G,4 | z4 D,2 F,2 | C,3 D, E,F, G,2- | %122
w: * * * se tu-||* * us,|tu- lit|es- * * * *|
 G,A, B,4 A,G, | A,3 F, E,2 C,2 | G,8- | G,8- | G,8 || z8 | z8 | z8 | z4 G,4 | D4 z2 G,2 | %132
w: * * * se _|tu- * * *|us.|_|||||Vir-|go sin-|
 G,2 G,4 F,E, | G,2 A,2 E,4 | D,4 G,4 | G,4 C,4 | G,4 z2 G,2- | G,2 G,2 C,2 C,2 | G,4 D,4 | z8 | %140
w: gu- la- * *||ris, in-|ter om-|nes mi-|* tis, om- nes|mi- tis,||
 z8 | z2 B,,2 B,,2 B,,2 | F,4 E,4 | D,3 E, F,2 G,2- | G,F,E,D, C,4 | z8 | D,4 F,4- | F,4 _E,2 C,2 | %148
w: |nos cul- pis|so- lu-||* * * * tos,||mi- tes|_ fac et|
 _E,4 D,4 | z8 | z8 | z8 | D,4 A,4 | z2 B,4 B,2 | B,4 A,4 | z2 D2 D,2 D2- | DC B,4 A,G, | %157
w: cas- tos.||||Vi- tam|prae- sta|pu- ram,|i- ter pa-||
 F,2 G,2 E,4 | D,8 | D,8 | z4 G,4- | G,4 D,4 | A,4 B,4 | G,8 | D,8 | z8 | z8 | D,4 F,4- | %168
w: * ra tu-||tum:|ut|_ vi-|den- tes|Je-|sum,|||sem- per|
 F,2 E,D, C,3 D, | E,F, G,4 ^F,2 | G,4 D,4 | z8 | z8 | G,4 D2 G,2 | B,3 A, G,F, G,2- | %175
w: _ _ _ col- *|lae- * te- *|* mur.|||Sit laus De-|* * o _ Pa-|
 G,F, D,2 E,4 | D,4 z4 | z8 | z8 | D4 D2 G,A, | B,C D4 G,2 | z2 C3 B,A,G, | F,2 E,2 D,4 | z8 | z8 | %185
w: |tri,|||sum- mo Chri- *|* * * sto|de- * * *|* * cus,|||
 z2 D,2 D,2 D,2 | F,3 G, A,4 | D,8 | z2 G,3 F,E,D, | C,2 F,4 E,2 | F,2 D,2 F,3 E, | %191
w: Spi- ri- tu-|i _ Sanc-|to,|tri- * * *|bus ho- *|* nor u- *|
 C,2 E,3 D,B,,C, | D,E, F,4 E,D, | C,2 E,2 D,4 | z2 B,3 A, G,2- | G,F,E,D, E,4 | D,8- | D,8- | %198
w: ||* * nus,|ho- nor u-||||
 D,8 | G,8- | G,8 |] %201
w: |us.|_|

